packages/web-icons/svgs/user_3.svg

<svg viewBox="0 0 48 48" xmlns="http://www.w3.org/2000/svg" class="ridi_icon"><path d="M42.6 39.1C50.3 29.7 49.8 15.8 41 7c-4.5-4.5-10.6-7-17-7S11.6 2.5 7.1 7C2.5 11.6 0 17.6 0 24s2.5 12.4 7 17c4.5 4.5 10.6 7 17 7s12.5-2.5 17-7c.5-.5.9-1 1.4-1.5 0-.1.1-.2.2-.4zM9.9 9.9c3.8-3.7 8.8-5.8 14.1-5.8 5.3 0 10.3 2.1 14.1 5.8 6.7 6.7 7.6 17.1 2.7 24.8-.1-.1-.1-.1-.2-.1-3.1-1.5-6.4-2.5-9.8-3.1.9-.9 1.5-1.9 1.6-2.9l.1-.9c.8-.4 1.4-1.2 1.5-2.2l.4-4c.1-.9-.3-1.8-.9-2.4l.1-1c.1-1.4.4-4.6-2.1-6.9C29.7 9.7 27 8.7 24 8.7s-5.7 1-7.4 2.6c-2.6 2.3-2.3 5.6-2.1 6.9l.1 1c-.6.6-1 1.4-.9 2.4l.4 4c.1 1 .7 1.8 1.5 2.2 0 .3.1.5.1.8.1 1 .7 2.1 1.6 2.9-3.4.6-6.8 1.7-9.9 3.1-.1 0-.1.1-.1.1-2-3.2-3.1-6.9-3.1-10.7-.1-5.3 2-10.3 5.7-14.1zm14.1 34h-1c-3.9-.2-7.7-1.5-10.9-3.9-.8-.6-1.5-1.2-2.2-1.9l-.1-.1-.1-.1c3.1-1.4 6.5-2.3 10.1-2.8.5-.1 1-.3 1.4-.8.4-.5.5-1 .4-1.5l-.4-2.8c-.1-.6-.4-1.1-.9-1.4-.4-.2-.6-.5-.6-.6-.1-.9-.2-1.7-.3-2.6-.1-.8-.6-1.4-1.4-1.7l-.2-1.4s.1 0 .1-.1c.6-.4 1-1.2.9-1.9l-.3-2.6c-.1-1.3-.2-2.7.9-3.6 1-1 2.7-1.5 4.6-1.5 1.9 0 3.7.6 4.7 1.6.9.8.9 2.2.8 3.5l-.3 2.6c-.1.7.2 1.5.9 1.9l.1.1-.2 1.5c-.7.2-1.3.9-1.4 1.7l-.3 2.5c0 .1-.2.4-.6.6-.5.3-.8.8-.9 1.4l-.4 2.8c-.1.5.1 1.1.4 1.5.3.4.8.7 1.4.8 3.5.4 6.9 1.4 10.1 2.8l-.1.1c-3.9 3.8-8.9 5.9-14.2 5.9z"/></svg>

<?xml version="1.0" encoding="UTF-8"?>
<svg width="48px" height="48px" viewBox="0 0 48 48" version="1.1" xmlns="http://www.w3.org/2000/svg">
  <!-- Generator: Sketch 41.2 (35397) - http://www.bohemiancoding.com/sketch -->
  <title>user_3</title>
  <desc>Created with Sketch.</desc>
  <defs></defs>
  <g id="Page-1" stroke="none" stroke-width="1" fill="none" fill-rule="evenodd">
    <g id="user_3" fill="#444444">
      <g id="레이어_1">
        <path d="M42.6,39.1 L42.6,39.1 C50.3,29.7 49.8,15.8 41,7 C36.5,2.5 30.4,0 24,0 C17.6,0 11.6,2.5 7.1,7 C2.5,11.6 0,17.6 0,24 C0,30.4 2.5,36.4 7,41 C11.5,45.5 17.6,48 24,48 C30.4,48 36.5,45.5 41,41 C41.5,40.5 41.9,40 42.4,39.5 C42.4,39.4 42.5,39.3 42.6,39.1 L42.6,39.1 L42.6,39.1 Z M9.9,9.9 C13.7,6.2 18.7,4.1 24,4.1 C29.3,4.1 34.3,6.2 38.1,9.9 C44.8,16.6 45.7,27 40.8,34.7 C40.7,34.6 40.7,34.6 40.6,34.6 C37.5,33.1 34.2,32.1 30.8,31.5 C31.7,30.6 32.3,29.6 32.4,28.6 L32.5,27.7 C33.3,27.3 33.9,26.5 34,25.5 L34.4,21.5 C34.5,20.6 34.1,19.7 33.5,19.1 L33.6,18.1 C33.7,16.7 34,13.5 31.5,11.2 C29.7,9.7 27,8.7 24,8.7 C21,8.7 18.3,9.7 16.6,11.3 C14,13.6 14.3,16.9 14.5,18.2 L14.6,19.2 C14,19.8 13.6,20.6 13.7,21.6 L14.1,25.6 C14.2,26.6 14.8,27.4 15.6,27.8 C15.6,28.1 15.7,28.3 15.7,28.6 C15.8,29.6 16.4,30.7 17.3,31.5 C13.9,32.1 10.5,33.2 7.4,34.6 C7.3,34.6 7.3,34.7 7.3,34.7 C5.3,31.5 4.2,27.8 4.2,24 C4.1,18.7 6.2,13.7 9.9,9.9 L9.9,9.9 Z M24,43.9 L23,43.9 C19.1,43.7 15.3,42.4 12.1,40 C11.3,39.4 10.6,38.8 9.9,38.1 C9.9,38.1 9.9,38.1 9.8,38 C9.7,37.9 9.8,38 9.7,37.9 C12.8,36.5 16.2,35.6 19.8,35.1 C20.3,35 20.8,34.8 21.2,34.3 C21.6,33.8 21.7,33.3 21.6,32.8 L21.2,30 C21.1,29.4 20.8,28.9 20.3,28.6 C19.9,28.4 19.7,28.1 19.7,28 C19.6,27.1 19.5,26.3 19.4,25.4 C19.3,24.6 18.8,24 18,23.7 L18,23.7 L17.8,22.3 C17.8,22.3 17.9,22.3 17.9,22.2 C18.5,21.8 18.9,21 18.8,20.3 L18.5,17.7 C18.4,16.4 18.3,15 19.4,14.1 C20.4,13.1 22.1,12.6 24,12.6 C25.9,12.6 27.7,13.2 28.7,14.2 C29.6,15 29.6,16.4 29.5,17.7 L29.2,20.3 C29.1,21 29.4,21.8 30.1,22.2 L30.2,22.3 L30,23.8 L30,23.8 C29.3,24 28.7,24.7 28.6,25.5 L28.3,28 C28.3,28.1 28.1,28.4 27.7,28.6 C27.2,28.9 26.9,29.4 26.8,30 L26.4,32.8 C26.3,33.3 26.5,33.9 26.8,34.3 C27.1,34.7 27.6,35 28.2,35.1 C31.7,35.5 35.1,36.5 38.3,37.9 L38.2,38 C34.3,41.8 29.3,43.9 24,43.9 L24,43.9 Z" id="Shape"></path>
      </g>
    </g>
  </g>
</svg>
